source/images/icons/user-icon.svg

<svg width="16.000000" height="16.000000" viewBox="0 0 16 16" fill="none" xmlns="http://www.w3.org/2000/svg" xmlns:xlink="http://www.w3.org/1999/xlink">
	<desc>
			Created with Pixso.
	</desc>
	<defs/>
	<path d="M10.6665 4C10.6665 5.47266 9.47266 6.6665 8 6.6665C6.52734 6.6665 5.3335 5.47266 5.3335 4C5.3335 2.52734 6.52734 1.3335 8 1.3335C9.47266 1.3335 10.6665 2.52734 10.6665 4ZM12 4C12 6.20898 10.209 8 8 8C5.79102 8 4 6.20898 4 4C4 1.79102 5.79102 0 8 0C10.209 0 12 1.79102 12 4ZM3.19678 12.3101C4.43604 11.2773 6.16113 10.6665 8 10.6665C9.83887 10.6665 11.564 11.2773 12.8032 12.3101C14.0352 13.3369 14.6665 14.6719 14.6665 16L16 16C16 14.2319 15.1572 12.5361 13.6567 11.2861C12.1567 10.0356 10.1216 9.3335 8 9.3335C5.87842 9.3335 3.84326 10.0356 2.34326 11.2861C0.842773 12.5361 0 14.2319 0 16L1.3335 16C1.3335 14.6719 1.96484 13.3369 3.19678 12.3101Z" fill="#333333" fill-opacity="1.000000" fill-rule="evenodd"/>
</svg>

<svg viewBox="0 0 16 16"  xmlns="http://www.w3.org/2000/svg"><path d="M10.67 4a2.67 2.67 0 1 1-5.34 0 2.67 2.67 0 0 1 5.34 0Zm1.33 0a4 4 0 1 1-8 0 4 4 0 0 1 8 0Zm-8.8 8.31a7.55 7.55 0 0 1 4.8-1.64c1.84 0 3.56.6 4.8 1.64a4.83 4.83 0 0 1 1.87 3.69h1.33c0-1.77-.84-3.46-2.34-4.71a8.88 8.88 0 0 0-5.66-1.96c-2.12 0-4.16.7-5.66 1.96a6.16 6.16 0 0 0-2.34 4.71h1.33c0-1.33.63-2.66 1.87-3.69Z"  fill-rule="evenodd"/></svg>
